projects/packages/backup/src/js/components/icons/warning.svg

<svg fill="none" height="24" width="24" xmlns="http://www.w3.org/2000/svg"><path d="m12 4c4.42 0 8 3.58 8 8s-3.58 8-8 8-8-3.58-8-8 3.58-8 8-8zm1.13 9.38.35-6.46h-2.96l.35 6.46zm-.09 3.36c.24-.23.37-.55.37-.96 0-.42-.12-.74-.36-.97s-.59-.35-1.06-.35-.82.12-1.07.35-.37.55-.37.97c0 .41.13.73.38.96.26.23.61.34 1.06.34s.8-.11 1.05-.34z" fill="#d63638"/></svg>

<svg width="24" height="24" fill="none" xmlns="http://www.w3.org/2000/svg"><path d="M12 4C16.42 4 20 7.58 20 12C20 16.42 16.42 20 12 20C7.58 20 4 16.42 4 12C4 7.58 7.58 4 12 4ZM13.13 13.38L13.48 6.92H10.52L10.87 13.38H13.13ZM13.04 16.74C13.28 16.51 13.41 16.19 13.41 15.78C13.41 15.36 13.29 15.04 13.05 14.81C12.81 14.58 12.46 14.46 11.99 14.46C11.52 14.46 11.17 14.58 10.92 14.81C10.67 15.04 10.55 15.36 10.55 15.78C10.55 16.19 10.68 16.51 10.93 16.74C11.19 16.97 11.54 17.08 11.99 17.08C12.44 17.08 12.79 16.97 13.04 16.74V16.74Z" fill="#D63638"/></svg>
